packages/kaspersky-hexa-ui-icons/src/iconsSVGs/24/Perpetuity.svg

<svg width="24" height="24" viewBox="0 0 24 24" fill="none" xmlns="http://www.w3.org/2000/svg">
<path d="M15.2639 9.96563C15.7729 9.41965 16.4858 9.10962 17.2323 9.10962C18.7295 9.10962 19.9389 10.3315 19.9234 11.8287L19.9201 12.1479C19.9061 13.5053 18.8737 14.6351 17.5231 14.7711L17.3142 14.7921C16.69 14.8549 16.0687 14.6479 15.6071 14.2231L15.2441 13.8796C14.839 13.4962 14.1986 13.5184 13.8209 13.9288C13.4508 14.3312 13.4724 14.9562 13.8695 15.332L14.2529 15.695C15.135 16.5065 16.322 16.9021 17.5145 16.782L17.7235 16.761C20.0881 16.5229 21.8955 14.545 21.92 12.1686L21.9233 11.8493C21.9503 9.23961 19.8422 7.10962 17.2323 7.10962C15.9311 7.10962 14.6884 7.65005 13.801 8.60177L10.755 11.8688C10.7488 11.8755 10.7427 11.8822 10.7367 11.889L8.73639 14.0345C8.22735 14.5805 7.51441 14.8905 6.76794 14.8905C5.27073 14.8905 4.06136 13.6686 4.07681 12.1714L4.0801 11.8522C4.09412 10.4948 5.12651 9.36503 6.47714 9.22905L6.68605 9.20802C7.31024 9.14517 7.93151 9.35224 8.39319 9.77698L8.65951 10.0277C9.06488 10.4092 9.70383 10.3863 10.0808 9.97656C10.4516 9.57342 10.4291 8.9469 10.0302 8.57143L9.74731 8.30512C8.86524 7.49361 7.67826 7.09801 6.48571 7.21808L6.27679 7.23911C3.9122 7.47718 2.10474 9.45514 2.08021 11.8316L2.07692 12.1508C2.04998 14.7605 4.15809 16.8905 6.76794 16.8905C8.06915 16.8905 9.3119 16.3501 10.1992 15.3983L13.2452 12.1313C13.2514 12.1246 13.2576 12.1179 13.2636 12.1111L15.2639 9.96563Z" fill="black"/>
</svg>

<svg xmlns="http://www.w3.org/2000/svg" width="24" height="24" fill="none" viewBox="0 0 24 24"><path fill="#000" d="M15.2639 9.9656a2.69 2.69 0 0 1 1.9684-.856c1.4972 0 2.7066 1.2219 2.6911 2.7191l-.0033.3192c-.014 1.3574-1.0464 2.4872-2.397 2.6232l-.2089.021a2.196 2.196 0 0 1-1.7071-.569l-.363-.3435c-.4051-.3834-1.0455-.3612-1.4232.0492-.3701.4024-.3485 1.0274.0486 1.4032l.3834.363a4.196 4.196 0 0 0 3.2616 1.087l.209-.021c2.3646-.2381 4.172-2.216 4.1965-4.5924l.0033-.3193c.027-2.6097-2.0811-4.7397-4.691-4.7397a4.69 4.69 0 0 0-3.4313 1.4922l-3.046 3.267-.0183.0202-2.0003 2.1455c-.509.546-1.222.856-1.9685.856-1.4972 0-2.7065-1.2219-2.691-2.7191l.0032-.3192c.014-1.3574 1.0464-2.4872 2.397-2.6231l.209-.021a2.196 2.196 0 0 1 1.707.5689l.2664.2507c.4054.3815 1.0443.3586 1.4213-.0511.3708-.4032.3483-1.0297-.0506-1.4052l-.2829-.2663a4.196 4.196 0 0 0-3.2616-1.087l-.209.021c-2.3645.238-4.172 2.216-4.1965 4.5925l-.0033.3192c-.027 2.6097 2.0812 4.7397 4.691 4.7397a4.69 4.69 0 0 0 3.4313-1.4922l3.046-3.267q.0093-.01.0184-.0202z"/></svg>
